!!!!SEGMENT: pl-gd--ee-1638--003-020_marenzio-luca--madrigali-a-quatro-voci-tutto-il-di-piango.krn
!!!cenid: 15xx:994
!!!COM: Marenzio, Luca
!!!COM-rismID: pe30003955
!!!CDT: ~1553-1599/08/22
!!!CNT: Italian
!!!GTL: Madrigali a quatro voci
!!!OTL: Tutto il dÌ piango
!!!OMV: 020
!!!PDT: 1587
!!!AGN:
!!!SMS-siglum: PL-GD
!!!SMS-shelfmark: Ee 1638
!!!SMS-shelfwork: 003-020 G
!!!SMS-variant:
!!!SMS-altvar:
!!!NIFC-rismSourceID: 990039322
!!!NIFC-islandoraID: pl-gd:57883
!!!URL-pdf-islandora: https://repozytorium.nifc.pl/islandora/object/pl-gd%3A57883/datastream/PDF/view
!!!URL-scan: https://polish.musicsources.pl/pl/lokalizacje/galeria/klocki-introligatorskie/655 @EN{Scan on Polish Music Herritage in Open Access Website} @PL{Skany w portalu Dziedzictwo Muzyki Polskiej w otwartym dostępie}
!!!ONB-nifc: UWAGA: zbiór na stronach: Canto: s. 637-653, Alto: s. do 486-501, Tenore: s. do 334-349, Bassus: s. do 182-197. Uwaga: utwory podzielone wg tytułów w spisach treści dostępnych na końcu każdej księgi głosowej.
!!!AIN: 1 alto 1 bass 1 soprn 1 tenor
!!!key: d
**kern	**text	**kern	**text	**kern	**text	**kern	**text
*part4	*part4	*part3	*part3	*part2	*part2	*part1	*part1
*staff4	*staff4	*staff3	*staff3	*staff2	*staff2	*staff1	*staff1
*I"BASSO	*	*I"TENORE	*	*I"ALTO	*	*I"CANTO	*
*I'B	*	*I'T	*	*I'A	*	*I'S	*
*ICvox	*	*ICvox	*	*ICvox	*	*ICvox	*
*Ibass	*	*Itenor	*	*Ialto	*	*Isoprn	*
*clefF3	*	*clefC3	*	*clefC2	*	*clefG2	*
*k[b-]	*	*k[b-]	*	*k[b-]	*	*k[b-]	*
*d:	*	*d:	*	*d:	*	*d:	*
*M2/1	*	*M2/1	*	*M2/1	*	*M2/1	*
*met(C|)	*	*met(C|)	*	*met(C|)	*	*met(C|)	*
=1-	=1-	=1-	=1-	=1-	=1-	=1-	=1-
!	!	!	!	!LO:TX:b:t=TVtto'l dì piango	!	!LO:TX:b:t=TVtto'l dì piango	!
!LO:TX:t=P:problem: podwójnie zapisany bemol: BB- B-	!	!	!	!LO:TX:t=P:problem: podwójnie zapisany bemol: B- b-	!	!	!
!LO:TX:a:t=Prima parte.	!	!LO:TX:a:t=Prima parte.	!	!LO:TX:a:t=Prima parte.	!	!LO:TX:a:t=Prima parte.	!
1A	TVt-	0r	.	00r	.	00r	.
2A\	-to'l	.	.	.	.	.	.
2A\	dì	.	.	.	.	.	.
=2-	=2-	=2-	=2-	=2-	=2-	=2-	=2-
0B-	pian-	1d	TVt-	.	.	.	.
.	.	2d\	-to'l	.	.	.	.
.	.	2d\	dì	.	.	.	.
=3-	=3-	=3-	=3-	=3-	=3-	=3-	=3-
0A	-go	1f	pian-	0r	.	2r	.
.	.	.	.	.	.	2a/	E
.	.	1e	-go	.	.	2cc#X\	poi
.	.	.	.	.	.	2cc#\	la
=4-	=4-	=4-	=4-	=4-	=4-	=4-	=4-
1D	Tut-	0r	.	2r	.	1dd	not-
.	.	.	.	2d/	E	.	.
2D/	-to'l	.	.	2f#X\	poi	2a/	-te
2D/	dì	.	.	2f#\	la	2dd\	quan-
=5-	=5-	=5-	=5-	=5-	=5-	=5-	=5-
*	*	*	*ij	*	*	*	*
0E-X	pian-	1G	TVt-	1g	not-	2ccny\	-do
.	.	.	.	.	.	1b-	Pren-
.	.	2G/	-to'l	1g	-te	.	.
.	.	2G/	dì	.	.	2cc\	-dõ(n)
=6-	=6-	=6-	=6-	=6-	=6-	=6-	=6-
0.D	-go	1B-	pian-	2r	.	2f/	ri-
.	.	.	.	2d/	Tut-	1g	-po-
.	.	1A	-go	2d/	-to'l	.	.
!	!	!	!	!	!	!LO:SIC:v:t=custos a	!
.	.	.	.	2d/	dì	2f#X/	ſo i
!	!	!	!	!	!	!LO:LB:g=original	!
*	*	*	*Xij	*	*	*	*
=7-	=7-	=7-	=7-	=7-	=7-	=7-	=7-
.	.	2r	.	1fny	pian-	1.a	mi-
.	.	2A/	E	.	.	.	.
!LO:TX:t=P:problem: problem z wyświetlaniem VHV - pauza graficznie nie wyświetla się	!	!	!	!	!	!	!
1r	.	2c#X/	poi	1e	-go	.	.
.	.	2c#/	la	.	.	2a/	-ſe-
=8-	=8-	=8-	=8-	=8-	=8-	=8-	=8-
!	!	!	!	!LO:SIC:v:t=custos a	!	!	!
*	*	*	*	*	*ij	*	*
2r	.	1d	not-	1a	TVt-	1f#X	-ri
2D/	e	.	.	.	.	.	.
!	!	!	!	!LO:LB:g=original	!	!	!
2F#X/	poi	1A	-te	2a\	-to'l	2r	.
2F#/	la	.	.	2a\	dì	2dd\	Tut-
=9-	=9-	=9-	=9-	=9-	=9-	=9-	=9-
!	!	!LO:SIC:v:t=custos A	!	!	!	!	!
1G	not-	1r	.	1b-	pian-	2dd\	-to'l
.	.	.	.	.	.	2dd\	dì
!LO:SIC:v:t=custos A	!	!LO:LB:g=original	!	!	!	!	!
1D	-te	2r	.	0a	-go	1ff	pian-
.	.	2A/	e	.	.	.	.
*	*	*	*	*	*Xij	*	*
!LO:LB:g=original	!	!	!	!	!	!	!
=10-	=10-	=10-	=10-	=10-	=10-	=10-	=10-
2r	.	2c#X/	poi	.	.	0ee	-go
2A\	e	2c#/	la	.	.	.	.
2c#X\	poi	1e	not-	2r	.	.	.
2c#\	la	.	.	2a\	e	.	.
=11-	=11-	=11-	=11-	=11-	=11-	=11-	=11-
1d	not-	2a\	-te	2f#X\	poi	2r	.
.	.	2d\	quan-	2f#\	la	2a/	e
1A	-te	1e	-do	1a	not-	2cc#X\	poi
.	.	.	.	.	.	2cc#\	la
=12-	=12-	=12-	=12-	=12-	=12-	=12-	=12-
2r	.	1f	Pren-	1d	-te	1dd	not-
2d\	quan-	.	.	.	.	.	.
2cny\	-do	2e\	-dõ(n)	2r	.	2g/	-te
1B-\	Pren-	2f\	ri-	1b-\	quã(n)-	1dd\	quan-
=13-	=13-	=13-	=13-	=13-	=13-	=13-	=13-
.	.	2g\	-po-	.	.	.	.
2c\	-don	2e\	ſo i	2g\	-do	1ccny	-do
2Fny/	ri-	2.d\	mi-	2a\	Pren-	.	.
!	!	!	!	!	!	!LO:N:acc=#	!
1G\	-po-	.	.	1g\	-dõ(n)	2bn/	Pren-
.	.	4d\	-ſe-	.	.	.	.
=14-	=14-	=14-	=14-	=14-	=14-	=14-	=14-
.	.	2e\	-ri	.	.	2cc\	-don
2F#X/	ſo i	2d\	mor-	2a\	ri-	1dd	ri-
1.A	mi-	2f\	-ta-	1a	-po-	.	.
.	.	2e\	-li	.	.	1cc#X\	-po-
=15-	=15-	=15-	=15-	=15-	=15-	=15-	=15-
.	.	2r	.	1e	ſo i	.	.
!	!	!	!	!	!	!LO:SIC:v:t=custos dd	!
2A\	-ſe-	2e\	i	.	.	2cc#X\	ſo i
!	!	!	!	!	!	!LO:LB:g=original	!
1F#X	-ri	2.a\	mi-	2A/	mi-	2dd\	mi-
.	.	.	.	2d/	-ſe-	2a/	-ſe-
!	!	!LO:SIC:v:t=custos g	!	!	!	!	!
.	.	4a\	-ſe-	.	.	.	.
!	!	!LO:LB:g=original	!	!	!	!	!
=16-	=16-	=16-	=16-	=16-	=16-	=16-	=16-
!	!	!	!	!	!	!LO:N:acc=#	!
1G	mor-	2g\	-ri	1d	-ri	1bn	-ri
.	.	2g\	mor-	.	.	.	.
0Eny	-ta-	0G	-ta-	1g	mor-	2cc#X\	mor-
.	.	.	.	.	.	1dd\	-ta-
=17-	=17-	=17-	=17-	=17-	=17-	=17-	=17-
.	.	.	.	1g	-ta-	.	.
.	.	.	.	.	.	2cc#X\	.
0.D	-li	0A	-li	0f#X	-li	0dd	-li
!L	!	!	!	!	!	!	!
=18-	=18-	=18-	=18-	=18-	=18-	=18-	=18-
!	!	!	!	!LO:TX:t=P:problem: problem z wyświetlaniem VHV - pauza graficznie nie wyświetla się	!	!	!
!	!	!	!	!LO:SIC:v:t=custos f	!	!	!
.	.	1r	.	1r	.	1a	Tro-
!	!	!	!	!LO:LB:g=original	!	!	!
=19-	=19-	=19-	=19-	=19-	=19-	=19-	=19-
00r	.	1d	Tro-	1fny	Tro-	2a/	-uo-
.	.	.	.	.	.	2a/	mi in
.	.	2d\	-uo-	2f\	-uo-	1b-y	piã(n)-
.	.	2d\	mi in	2f\	mi in	.	.
=20-	=20-	=20-	=20-	=20-	=20-	=20-	=20-
.	.	1e-X	piã(n)-	1g	piã(n)-	1b-	-to
.	.	1e-	-to	1g	-to	2r	.
.	.	.	.	.	.	2b-/	e
=21-	=21-	=21-	=21-	=21-	=21-	=21-	=21-
!LO:SIC:v:t=custos d	!	!	!	!	!	!	!
0r	.	2r	.	2r	.	1.dd	rad-
.	.	2B-/	e	2d/	e	.	.
.	.	1.d	rad-	2f\	rad-	.	.
.	.	.	.	2g\	-do-	2ee\	-do-
!O:LB:g=original	!	!	!	!	!	!	!
=22-	=22-	=22-	=22-	=22-	=22-	=22-	=22-
1d	e	.	.	1a	-piar-	1ff	-piar-
.	.	2eny\	-do-	.	.	.	.
1.B-	rad-	1f	-piar-	0d	-ſi	2ff\	-ſi
.	.	.	.	.	.	2b-/	e
=23-	=23-	=23-	=23-	=23-	=23-	=23-	=23-
.	.	1f	-ſi	.	.	1.dd	rad-
2A\	-do-	.	.	.	.	.	.
1G	-piarr-	1B-	e	1g	e	.	.
.	.	.	.	.	.	2ee\	-do-
=24-	=24-	=24-	=24-	=24-	=24-	=24-	=24-
2D/	-ſi	1.d	rad-	1a	rad-	0ff	-piar-
2d\	e	.	.	.	.	.	.
1.B-	rad-	.	.	0b-	-do-	.	.
.	.	2e\	-do-	.	.	.	.
=25-	=25-	=25-	=25-	=25-	=25-	=25-	=25-
!	!	!	!	!	!	!LO:SIC:v:t=custos dd	!
.	.	1f	-piar-	.	-piar-	0dd	ſi i
2A\	-do-	.	.	.	.	.	.
1G	-piar-	1g	ſi i	1.b-	ſi i	.	.
!	!	!	!	!	!	!LO:LB:g=original	!
=26-	=26-	=26-	=26-	=26-	=26-	=26-	=26-
1D	ſi i	2.f\	ma-	.	.	2.dd\	ma-
.	.	.	.	2a\	ma-	.	.
.	.	4e\	.	.	.	4ccny\	.
1G	ma-	0d	.	4g\	.	0b-	.
.	.	.	.	8f\	.	.	.
.	.	.	.	8e\	.	.	.
.	.	.	.	4d/	.	.	.
.	.	.	.	4e/	.	.	.
=27-	=27-	=27-	=27-	=27-	=27-	=27-	=27-
0Fny	-li	.	.	1f	.	.	.
!	!	!LO:SIC:v:t=custos f	!	!	!	!	!
.	.	1cny	-li	1f	-li	1a	-li
!	!	!LO:LB:g=original	!	!	!	!	!
=28-	=28-	=28-	=28-	=28-	=28-	=28-	=28-
2B-\	Co-	1r	.	0r	.	2dd\	Co-
2c\	-ſí	.	.	.	.	2ee\	-ſí
2d\	ſpe(n)	2f\	Co-	.	.	2ff\	ſpen-
4c\	do'l	2g\	-ſí	.	.	4ee\	-do'l
4B-\	mio	.	.	.	.	4dd\	mio
=29-	=29-	=29-	=29-	=29-	=29-	=29-	=29-
!	!	!	!	!LO:SIC:v:t=custos g	!	!	!
2A\	te(m)-	2a\	ſpen-	1r	.	2cc\	tem-
2B-\	-po	4g\	-do'l	.	.	2dd\	-po
.	.	4f\	mio	.	.	.	.
!	!	!	!	!LO:LB:g=original	!	!	!
1c	la-	2e\	tem-	2g\	Co-	1r	.
.	.	2f\	-po	2a\	-ſi	.	.
=30-	=30-	=30-	=30-	=30-	=30-	=30-	=30-
0B-	-gri-	2g\	la-	2b-\	ſpen-	2dd\	Co-
.	.	4f\	.	4a\	-do'l	2ee\	-ſi
.	.	4e\	.	4g\	mio	.	.
.	.	2d\	.	2f\	tem-	2ff\	ſpen-
.	.	2e\	-gri-	2g\	-po	4ee\	-do'l
.	.	.	.	.	.	4dd\	mio
=31-	=31-	=31-	=31-	=31-	=31-	=31-	=31-
0A	-man-	2f\	-man-	2a\	la-	2cc\	tem-
.	.	4e\	.	4g\	.	2dd\	-po
.	.	4d\	.	4f\	.	.	.
.	.	1.c	.	2e/	.	1ee	la-
.	.	.	.	2f#X\	-gri-	.	.
=32-	=32-	=32-	=32-	=32-	=32-	=32-	=32-
!LO:SIC:v:t=custos A	!	!	!	!	!	!	!
0E	-do	.	.	2g#X\	-man-	1ee	-gri-
!	!	!LO:N:acc=#	!	!	!	!	!
.	.	4Bn/	.	1a	.	.	.
.	.	4A/	.	.	.	.	.
!	!	!LO:N:acc=#	!	!	!	!LO:SIC:v:t=custos e	!
.	.	1Bn	.	.	.	1e	-man-
.	.	.	.	2g#X\	.	.	.
!LO:LB:g=original	!	!	!	!	!	!LO:LB:g=original	!
=33-	=33-	=33-	=33-	=33-	=33-	=33-	=33-
1A	In	1c#X	-do	1a	-do	2e/	-do
.	.	.	.	.	.	1a	In
!	!	!LO:SIC:v:t=custos e	!	!	!	!	!
2F#X/	triſt'	1d	In	2r	.	.	.
2G\	hu-	.	.	1gny\	In	1b-\	triſt'
!	!	!LO:LB:g=original	!	!	!	!	!
=34-	=34-	=34-	=34-	=34-	=34-	=34-	=34-
0C	-mor	2e\	triſt'	.	.	.	.
.	.	2f\	hu-	1fny	tri-	2a/	hu-
.	.	1g	-mor	.	.	2g/	-mor
.	.	.	.	4e/	.	1gg\	uo
.	.	.	.	4d/	.	.	.
=35-	=35-	=35-	=35-	=35-	=35-	=35-	=35-
1c	In	0r	.	2e/	.	.	.
!	!	!	!	!LO:SIC:v:t=custos g	!	!	!
.	.	.	.	2a\	-ſt'hu-	1ff	gl'oc
!LO:N:acc=#	!	!	!	!LO:LB:g=original	!	!	!
2Bn\	triſt'	.	.	1g	-mor	.	.
2c\	hu-	.	.	.	.	1ee\	chi
=36-	=36-	=36-	=36-	=36-	=36-	=36-	=36-
1Fny	-mor	1r	.	1f	uo	.	.
.	.	.	.	.	.	1dd	cõ(n)-
1A	In	2r	.	1e	gl'oc	.	.
.	.	1a\	uo	.	.	1cc\	-ſu-
=37-	=37-	=37-	=37-	=37-	=37-	=37-	=37-
2F#X/	triſt'	.	.	1d	chi	.	.
2G\	hu-	1g	gl'oc	.	.	1b-	-man-
0C	-mor	.	.	1c	cõ(n)-	.	.
.	.	1f\	chi	.	.	4a/	.
.	.	.	.	.	.	4g/	.
=38-	=38-	=38-	=38-	=38-	=38-	=38-	=38-
.	.	.	.	1c	-ſu-	2a/	.
.	.	2e\	cõ(n)-	.	.	4g/	-do
.	.	.	.	.	.	2gg\	In
1r	.	1d	-ſu-	1B-	-man-	.	.
.	.	.	.	.	.	2ff\	triſt'
.	.	.	.	.	.	4gg\	hu-
=39-	=39-	=39-	=39-	=39-	=39-	=39-	=39-
1c	uo	2e\	-man-	2A/	-do	2cc\	-mor
!	!	!	!	!	!	!LO:N:acc=#	!
.	.	2A/	-do	1a	uo	2een\	uo
1B-y	gl'oc-	1r	.	.	.	1dd	gl'oc-
.	.	.	.	1g\	gl'oc-	.	.
=40-	=40-	=40-	=40-	=40-	=40-	=40-	=40-
1A	-chi	2r	.	.	.	1cc	-chi
.	.	2cny/	uo	1f	-chi	.	.
!	!	!	!	!	!	!LO:SIC:v:t=custos a	!
1G	cõ(n)-	2d\	gl'oc-	.	.	1b-	cõ(n)-
.	.	2g\	-chi	1e\	cõ(n)-	.	.
!	!	!	!	!	!	!LO:LB:g=original	!
=41-	=41-	=41-	=41-	=41-	=41-	=41-	=41-
1Fny	-ſu-	2c/	cõ(n)-	.	.	1a	-ſu-
.	.	2d\	-ſu-	1d	-ſu-	.	.
1E	-man-	1e	-man-	.	.	1g	-man-
.	.	.	.	2c#X/	-man-	.	.
=42-	=42-	=42-	=42-	=42-	=42-	=42-	=42-
2D/	-do	2A/	-do	1d	-do	1f#X	-do
!LO:SIC:v:t=custos G	!	!	!	!	!	!	!
2D/	E'l	2A/	E'l	.	.	.	.
!LO:LB:g=original	!	!	!	!	!	!	!
1.G	cor	2.B-y/	cor	2r	.	2r	.
.	.	.	.	2B-/	E'l	2g/	E'l
.	.	4c/	.	.	.	.	.
=43-	=43-	=43-	=43-	=43-	=43-	=43-	=43-
!	!	!LO:SIC:v:t=custos G	!	!	!	!	!
.	.	1d	.	1.b-	cor	1.gg	cor
2F/	in	.	.	.	.	.	.
!	!	!LO:LB:g=original	!	!	!	!	!
0E-X	do-	1G	in	.	.	.	.
.	.	.	.	2a\	in	2ff\	in
=44-	=44-	=44-	=44-	=44-	=44-	=44-	=44-
.	.	1B-	do-	1g	do-	1ee-X	do-
1BB-	glia e	2B-/	glia e	1f	-glia	0dd	-glia
.	.	2.f\	ſon	.	.	.	.
=45-	=45-	=45-	=45-	=45-	=45-	=45-	=45-
!	!	!	!	!LO:SIC:v:t=custos a	!	!	!
2.B-\	ſon	.	.	0r	.	.	.
.	.	4f\	fra	.	.	.	.
.	.	2.g\	gl'a-	.	.	.	.
4B-\	fra	.	.	.	.	.	.
2.c\	gl'a-	.	.	.	.	1r	.
.	.	4g\	-ni-	.	.	.	.
.	.	2a\	-ma-	.	.	.	.
4c\	-ni-	.	.	.	.	.	.
!	!	!	!	!LO:LB:g=original	!	!	!
=46-	=46-	=46-	=46-	=46-	=46-	=46-	=46-
2d\	-ma-	1a	-li	2r	.	2r	.
2d\	-li	.	.	2.a\	L'ul-	2.ff\	L'ul-
1r	.	2r	.	.	.	.	.
.	.	.	.	4f\	-ti-	4dd\	-ti-
.	.	1c\	e	2g\	-mo	2eeny\	-mo
=47-	=47-	=47-	=47-	=47-	=47-	=47-	=47-
1F	e	.	.	1a	ſi	2cc\	ſi
.	.	2.f\	ſon	.	.	2cc\	et
2.B-\	ſon	.	.	1r	.	2.dd\	ſon
.	.	4f\	fra	.	.	.	.
.	.	2.g\	gl'a-	.	.	.	.
4B-\	fra	.	.	.	.	4dd\	fra
=48-	=48-	=48-	=48-	=48-	=48-	=48-	=48-
2.c\	gl'a-	.	.	1r	.	2.ee\	gl'a-
.	.	4g\	-ni-	.	.	.	.
.	.	2a\	-ma-	.	.	.	.
4c\	-ni-	.	.	.	.	4ee\	-ni-
2d\	-ma-	1a	-li	2r	.	2ff\	-ma-
!	!	!	!	!	!	!LO:SIC:v:t=custos dd	!
2d\	-li	.	.	2.f\	L'ul-	2ff\	-li
!	!	!	!	!	!	!LO:LB:g=original	!
=49-	=49-	=49-	=49-	=49-	=49-	=49-	=49-
2.B-\	L'ul-	1r	.	.	.	2.dd\	L'ul-
.	.	.	.	4d/	-ti-	.	.
.	.	.	.	2g\	-mo	.	.
4G\	-ti-	.	.	.	.	4b-/	-ti-
2A\	-mo	2.a\	L'ul-	2e/	ſi	2cc\	-mo
!LO:SIC:v:t=custos c	!	!	!	!	!	!	!
2F/	ſi	.	.	2.cc\	L'ul-	2a/	ſi
.	.	4f\	-ti-	.	.	.	.
!LO:LB:g=original	!	!	!	!	!	!	!
=50-	=50-	=50-	=50-	=50-	=50-	=50-	=50-
2.c\	L'ul-	2g\	-mo	.	.	0r	.
.	.	.	.	4g\	-ti-	.	.
.	.	2e\	ſi	2a\	-mo	.	.
4A\	-ti-	.	.	.	.	.	.
2B-\	-mo	1r	.	2f\	ſi	.	.
2G\	ſi	.	.	2r	.	.	.
=51-	=51-	=51-	=51-	=51-	=51-	=51-	=51-
00r	.	2r	.	0r	.	1dd	che
!	!	!LO:SIC:v:t=custos e	!	!	!	!	!
.	.	2d\	che	.	.	.	.
!	!	!LO:LB:g=original	!	!	!	!	!
.	.	2e\	gl'a-	.	.	2.cc\	gl'a-
.	.	2f\	-mo-	.	.	.	.
.	.	.	.	.	.	4dd\	-mo-
=52-	=52-	=52-	=52-	=52-	=52-	=52-	=52-
.	.	2e\	-ro-	1r	.	2cc\	-ro-
.	.	2f#X\	-ſi	.	.	2a/	-ſi
.	.	2.g\	ſtra-	2r	.	4b-/	ſtra-
.	.	.	.	.	.	4cc\	.
.	.	.	.	2g\	che	4dd\	.
.	.	8fny\	.	.	.	4ee\	.
.	.	8e\	.	.	.	.	.
=53-	=53-	=53-	=53-	=53-	=53-	=53-	=53-
1r	.	2.d\	.	2a\	gl'a-	1ff	.
.	.	.	.	2b-\	-mo-	.	.
.	.	4e\	.	.	.	.	.
1d	che	1f	.	2a\	-ro-	2ff\	-li
!	!	!	!	!LO:SIC:v:t=custos cc	!	!	!
!	!	!	!	!LO:N:acc=#	!	!	!
.	.	.	.	2bn\	-ſi	2dd\	che
!	!	!	!	!LO:LB:g=original	!	!	!
=54-	=54-	=54-	=54-	=54-	=54-	=54-	=54-
2.c\	gl'a-	4g\	-li	4cc\	ſtra-	2.ee\	gl'a-
.	.	4f\	.	8b-y\	.	.	.
.	.	.	.	8a\	.	.	.
.	.	4e\	.	4g\	.	.	.
4d\	-mo-	4d\	.	4f\	.	4a/	-mo-
2c\	-ro-	1e	.	4g\	.	2cc\	-ro-
.	.	.	.	4e/	.	.	.
2A\	-ſi	.	.	2.a\	.	2cc\	-ſi
=55-	=55-	=55-	=55-	=55-	=55-	=55-	=55-
1B-	ſtra-	2r	.	.	.	1dd	ſtra-
.	.	.	.	8g\	.	.	.
.	.	.	.	8f\	.	.	.
.	.	2d\	che	2g\	.	.	.
!	!	!	!	!	!	!LO:SIC:v:t=custos a	!
1.A	-li	2e\	gl'a-	0a	-li	1cc	-li
.	.	2f\	-mo-	.	.	.	.
!	!	!	!	!	!	!LO:LB:g=original	!
=56-	=56-	=56-	=56-	=56-	=56-	=56-	=56-
.	.	2e\	-ro-	.	.	2r	.
2d\	Mi	2f#X\	-ſi	.	.	2a/	Mi
4G\	ten-	1g	ſtra-	2r	.	4b-/	ten-
4A\	-gõ(n)	.	.	.	.	4cc\	-gon
4B-\	ad	.	.	2g\	Mi	4dd\	ad
4c\	ogn'	.	.	.	.	4ee\	ogn'
=57-	=57-	=57-	=57-	=57-	=57-	=57-	=57-
1F	hor	2fny\	-li	4a\	ten-	1.ff	hor
.	.	.	.	4b-\	-gon	.	.
!	!	!LO:SIC:v:t=custos d	!	!	!	!	!
.	.	2a\	Mi	4cc\	ad	.	.
.	.	.	.	4a\	ogn'	.	.
!	!	!LO:LB:g=original	!	!	!	!	!
1B-	di	4d\	ten-	1b-	hor	.	.
.	.	4e\	-gon	.	.	.	.
.	.	4f\	ad	.	.	2dd\	di
.	.	4g\	ogn'	.	.	.	.
=58-	=58-	=58-	=58-	=58-	=58-	=58-	=58-
1A	pa-	2c/	hor	2r	.	2ee\	pa-
.	.	2f\	di	1cc	di	2a/	-ce
1G	ce in	2e\	pa-	.	.	2r	.
.	.	2d\	ce in	1b-\	pa-	2dd\	in
=59-	=59-	=59-	=59-	=59-	=59-	=59-	=59-
0G	bã(n)-	0d	ban-	.	.	4dd\	ban-
.	.	.	.	.	.	4cc\	.
.	.	.	.	2g\	ce in	4b-/	.
.	.	.	.	.	.	4a/	.
.	.	.	.	1g	ban-	1b-	.
=60-	=60-	=60-	=60-	=60-	=60-	=60-	=60-
00D	-do.	00d	-do.	00f#X	-do.	00a	-do.
==	==	==	==	==	==	==	==
*-	*-	*-	*-	*-	*-	*-	*-
!!!system-decoration: [(s1,s2,s3,s4)]
!!!ENC: Mateusz Solarz
!!!END: 2022-06-28
!!!ENC: Jan Barakat
!!!END: 2022-07-13
